!!!!SEGMENT: pl-sa--305-a-vii-65--001-004_lechleitner-ferdinand-simon--vespere-beatus-vir.krn
!!!cenid: 17xx:397
!!!COM: Lechleitner, Ferdinand Simon
!!!COM-rismID: pe30001903
!!!CDT: ~1700-~1800
!!!CNT:
!!!OPR: Vespere
!!!OTL: Beatus vir
!!!OMV: 004
!!!PDT:
!!!AGN: Sacred; Vespers
!!!YEC: Copyright 2022 Narodowy Instytut Fryderyka Chopina (https://polishscores.org)
!!!YEM: License CC-BY-4.0 (https://creativecommons.org/licenses/by/4.0)
!!!SMS-siglum: PL-SA
!!!SMS-shelfmark: 305/A VII 65
!!!SMS-shelfwork: 001-004 M
!!!NIFC-rismSourceID: 1001077319
!!!NIFC-rismChildID: 1001077319
!!!NIFC-islandoraID: none
!!!URL-pdf-islandora:
!!!URL-scan: https://bc.bdsandomierz.pl/dlibra/publication/1610/edition/1578/content @EN{Scan in the Sandomierz Diocese Digital Library} @PL{Skany w portalu Cyfrowa Biblioteka Diecezjalna w Sandomierzu}
!!!IIIF:
!!!ONB-nifc: UWAGA: części Vespere: Domine ad adiuvandum, Dixit dominus, Confitebor, Beatus vir, Laudate pueri, Credidi, Magnificat
!!!AIN: 1 alto 3 empty 1 organ 1 tenor 2 violn 1 vox
!!!key:
**kern	**fba	**kern	**kern	**kern	**text	**kern	**text	**kern	**text	**kern	**text	**kern	**kern
*	*	*group3	*group3	*group2	*	*group2	*	*group2	*	*group2	*	*group1	*group1
*part9	*	*part8	*part7	*part6	*	*part5	*	*part4	*	*part3	*	*part2	*part1
*staff9	*	*staff8	*staff7	*staff6	*	*staff5	*	*staff4	*	*staff3	*	*staff2	*staff1
*Iorgan	*	*Ivioln	*Ivioln	*Iempty	*	*Itenor	*	*Ialto	*	*Ivox	*	*Iempty	*Iempty
*I"Organo	*	*I"Violino Secundo	*I"Violino Primo	*I"Baſso	*	*I"Tenore	*	*I"Alto	*	*I"Canto	*	*I"Clarino 2do	*I"Clarino 1mo
*I'org	*	*I'vl 2	*I'vl 1	*I'B	*	*I'T	*	*I'A	*	*I'S	*	*I'clno 2	*I'clno 1
*clefF4	*	*clefG2	*clefG2	*clefF4	*	*clefC4	*	*clefC3	*	*clefC1	*	*clefG2	*clefG2
*k[b-]	*	*k[b-]	*k[b-]	*k[b-]	*	*k[b-]	*	*k[b-]	*	*k[b-]	*	*k[b-]	*k[b-]
*F:	*	*F:	*F:	*F:	*	*F:	*	*F:	*	*F:	*	*F:	*F:
*M6/8	*	*M6/8	*M6/8	*M6/8	*	*M6/8	*	*M6/8	*	*M6/8	*	*M6/8	*M6/8
=1	=1	=1	=1	=1	=1	=1	=1	=1	=1	=1	=1	=1	=1
!	!	!LO:TX:a:t=10	!	!	!	!LO:TX:b:t=P:problem="B" przed kluczem	!	!	!	!	!	!	!
!LO:TX:b:t=Beatus vir	!	!LO:TX:b:t=Beatus	!LO:TX:b:t=Beatus vir	!	!	!LO:TX:b:t=solo	!	!LO:TX:a:t=andante	!	!LO:TX:b:t=Beatus	!	!LO:TX:a:t=Beatus vir Tacet	!LO:TX:a:t=Beatus Tacet
!	!	!LO:N:vis=00	!LO:N:vis=00	!LO:N:vis=00	!	!	!	!LO:N:vis=0	!	!LO:N:vis=00	!	!	!
4FF/	.	0.r	0.r	0.r	.	8A/	(B)e-	1.r	.	0.r	.	2.ryy	2.ryy
.	.	.	.	.	.	8G/	-a-	.	.	.	.	.	.
*8\right	*	*	*	*	*	*	*	*	*	*	*	*	*
8F\	.	.	.	.	.	8F/	-tus	.	.	.	.	.	.
!	!	!	!	!	!	!LO:LB:g=original	!	!	!	!	!	!	!
8E\L	6	.	.	.	.	4c\	vir	.	.	.	.	.	.
8D\	.	.	.	.	.	.	.	.	.	.	.	.	.
8C\J	.	.	.	.	.	8c\	qui	.	.	.	.	.	.
=2	=2	=2	=2	=2	=2	=2	=2	=2	=2	=2	=2	=2	=2
8F\L	.	.	.	.	.	16A/LL	ti-	.	.	.	.	2.ryy	2.ryy
.	.	.	.	.	.	16G/	.	.	.	.	.	.	.
8r	.	.	.	.	.	16A/	.	.	.	.	.	.	.
.	.	.	.	.	.	16F/JJ	.	.	.	.	.	.	.
8F\J	.	.	.	.	.	16G/LL	-met	.	.	.	.	.	.
.	.	.	.	.	.	16A/JJ	.	.	.	.	.	.	.
8G\L	7	.	.	.	.	(16B-\LL	do-	.	.	.	.	.	.
.	.	.	.	.	.	16A\JJ)	.	.	.	.	.	.	.
8r	.	.	.	.	.	(16B-\LL	-mi-	.	.	.	.	.	.
.	.	.	.	.	.	16G\JJ)	.	.	.	.	.	.	.
8G\J	6	.	.	.	.	(16A\LL	-num	.	.	.	.	.	.
.	.	.	.	.	.	16B-\JJ)	.	.	.	.	.	.	.
=3	=3	=3	=3	=3	=3	=3	=3	=3	=3	=3	=3	=3	=3
8A\L	6	.	.	.	.	16c\LL	in	8f\	Po-	.	.	2.ryy	2.ryy
.	.	.	.	.	.	16B-\	.	.	.	.	.	.	.
8r	.	.	.	.	.	16c\	.	8c/	-tens	.	.	.	.
.	.	.	.	.	.	16A\JJ	.	.	.	.	.	.	.
8A\J	6	.	.	.	.	(16B-\LL	man-	8f\	in	.	.	.	.
.	.	.	.	.	.	16c\JJ)	.	.	.	.	.	.	.
!	!	!	!	!	!	!	!	!LO:LB:g=original	!	!	!	!	!
!LO:TX:a:t=P:problem=mixed beam	!	!	!	!	!	!	!	!	!	!	!	!	!
8B-\L	6	.	.	.	.	16d\LL	-da-	4g\	ter-	.	.	.	.
.	.	.	.	.	.	16e-X\	.	.	.	.	.	.	.
8r	.	.	.	.	.	16d\	.	.	.	.	.	.	.
.	6	.	.	.	.	16c\JJ	.	.	.	.	.	.	.
8BB-/J	5	.	.	.	.	16B-\LL	-tis	8g\	-ra	.	.	.	.
.	.	.	.	.	.	16A\JJ	.	.	.	.	.	.	.
=4	=4	=4	=4	=4	=4	=4	=4	=4	=4	=4	=4	=4	=4
8C/L	.	.	.	.	.	4G/	e-	8.g\	e-	.	.	2.ryy	2.ryy
8D/	.	.	.	.	.	.	.	.	.	.	.	.	.
.	.	.	.	.	.	.	.	16b-\	-rit	.	.	.	.
8E/J	.	.	.	.	.	8G/	-jus	16a\	ſe-	.	.	.	.
.	.	.	.	.	.	.	.	16g\	-men	.	.	.	.
*4\right	*	*	*	*	*	*	*	*	*	*	*	*	*
4F\	.	.	.	.	.	8r	.	8a\	e-	.	.	.	.
.	.	.	.	.	.	8c\	vo-	8f\	-jus	.	.	.	.
8E\	6	.	.	.	.	8G/	-let	16g\	ge-	.	.	.	.
.	.	.	.	.	.	.	.	16g\	-ne-	.	.	.	.
!	!	!	!	!	!	!LO:LB:g=original	!	!	!	!	!	!	!
=5	=5	=5	=5	=5	=5	=5	=5	=5	=5	=5	=5	=5	=5
!	!	!LO:N:vis=00	!LO:N:vis=00	!LO:N:vis=0	!	!	!	!	!	!LO:N:vis=2	!	!	!
8F\L	.	0.r	0.r	1.r	.	8A/	ni-	8.f\	-ra-	4.r	.	2.ryy	2.ryy
8D\	6	.	.	.	.	8F/	-mis	.	.	.	.	.	.
.	.	.	.	.	.	.	.	16a\	-ti-	.	.	.	.
8BB-\J	5	.	.	.	.	8r	.	16g\	-o	.	.	.	.
.	.	.	.	.	.	.	.	16f\	re-	.	.	.	.
8C/L	.	.	.	.	.	4r	.	8e\	-cto-	8cc\	Glo-	.	.
8D/	6\	.	.	.	.	.	.	16e\	-rum	16cc\	-ri-	.	.
.	.	.	.	.	.	.	.	16f\	be-	16bn\	-a	.	.
!	!	!	!	!	!	!LO:N:vis=4	!	!	!	!	!	!	!
8E/J	6	.	.	.	.	8r	.	8g\	-ne-	8cc\	et	.	.
!	!	!	!	!	!	!	!	!LO:LB:g=original	!	!	!	!	!
=6	=6	=6	=6	=6	=6	=6	=6	=6	=6	=6	=6	=6	=6
!LO:TX:a:t=P:problem=mixed beam	!	!	!	!	!	!LO:N:vis=00	!	!	!	!	!	!	!
8F\L	6 5	.	.	.	.	0.r	.	16a\LL	-di-	(16dd\LL	di-	2.ryy	2.ryy
.	.	.	.	.	.	.	.	16d\JJ	.	16cc\JJ)	.	.	.
8G\	6 4	.	.	.	.	.	.	8e\L	-ce-	8.cc\	-vi-	.	.
.	5 3	.	.	.	.	.	.	.	.	.	.	.	.
8GG/J	x n	.	.	.	.	.	.	16d\L	.	.	.	.	.
.	.	.	.	.	.	.	.	16c\JJ	.	16bn\	-ti-	.	.
!LO:TX:a:t=P:problem=mixed beam	!	!	!	!	!	!	!	!	!	!	!	!	!
8C/L	.	.	.	.	.	.	.	8c/	-tur	16cc\	-ae	.	.
.	.	.	.	.	.	.	.	.	.	16ee\	in	.	.
!	!	!	!	!	!	!	!	!	!	!LO:LB:g=original	!	!	!
8F\	5	.	.	.	.	.	.	8r	.	16ff\LL	do-	.	.
.	.	.	.	.	.	.	.	.	.	16ee\JJ	.	.	.
8G\J	6	.	.	.	.	.	.	8r	.	16dd\LL	-mo	.	.
.	.	.	.	.	.	.	.	.	.	16ee\JJ	.	.	.
!LO:LB:g=original	!	!	!	!	!	!	!	!	!	!	!	!	!
=7	=7	=7	=7	=7	=7	=7	=7	=7	=7	=7	=7	=7	=7
*16\right	*	*	*	*	*	*	*	*	*	*	*	*	*
!	!	!	!	!	!	!	!	!LO:TX:a:t=4	!	!	!	!	!
!	!	!	!	!	!	!	!	!LO:N:vis=00	!	!	!	!	!
16A\LL	#	.	.	(16A\LL	ex-	.	.	0.r	.	(8.cc#X\L	e-	2.ryy	2.ryy
16B-\	.	.	.	16B-\JJ)	.	.	.	.	.	.	.	.	.
16A\	.	.	.	(16A\LL	-or-	.	.	.	.	.	.	.	.
16G\	.	.	.	16G\JJ)	.	.	.	.	.	16b-\Jk)	.	.	.
16F\	.	.	.	(16F\LL	-tum	.	.	.	.	8a\	-jus,	.	.
16E\JJ	.	.	.	16E\JJ)	.	.	.	.	.	.	.	.	.
8D\L	.	.	.	4D\	eſt	.	.	.	.	8r	.	.	.
8F\	.	.	.	.	.	.	.	.	.	8dd\	et	.	.
8D\J	.	.	.	8d\	in	.	.	.	.	8a\	ju-	.	.
=8	=8	=8	=8	=8	=8	=8	=8	=8	=8	=8	=8	=8	=8
8G\L	.	.	.	8.G\	te-	.	.	.	.	8.b-\	-sti-	2.ryy	2.ryy
8E\	6 5	.	.	.	.	.	.	.	.	.	.	.	.
.	.	.	.	16G\	-ne-	.	.	.	.	16dd\	-ti-	.	.
8C\J	7	.	.	8G\	-bris	.	.	.	.	(16cc\LL	-a	.	.
.	.	.	.	.	.	.	.	.	.	16b-\JJ)	.	.	.
16F\LL	.	.	.	16F\LL	lu-	.	.	.	.	(8.a\L	e-	.	.
16E\	.	.	.	16E\	.	.	.	.	.	.	.	.	.
16F\	.	.	.	16F\	.	.	.	.	.	.	.	.	.
16G\	.	.	.	16G\JJ	.	.	.	.	.	16g\Jk)	.	.	.
!	!	!	!	!LO:LB:g=original	!	!	!	!	!	!	!	!	!
16A\	.	.	.	(16A\LL	-men	.	.	.	.	8f/	-jus,	.	.
16F\JJ	.	.	.	16F\JJ)	.	.	.	.	.	.	.	.	.
=9	=9	=9	=9	=9	=9	=9	=9	=9	=9	=9	=9	=9	=9
!	!	!LO:N:vis=0	!LO:N:vis=0	!	!	!	!	!	!	!	!	!	!
8E\L	6	1.r	1.r	8E\	rec-	.	.	.	.	8cc\	ma-	2.ryy	2.ryy
8C\	.	.	.	8C,</	-tis	.	.	.	.	8cc\	-net	.	.
8F\J	.	.	.	8r	.	.	.	.	.	8cc\	in	.	.
!	!	!	!	!	!	!	!	!	!	!	!LO:MO:mod=sae-	!	!
8E\L	6	.	.	8c\	mi-	.	.	.	.	8.cc\	se-	.	.
8C\	.	.	.	8c\	-se-	.	.	.	.	.	.	.	.
.	.	.	.	.	.	.	.	.	.	16b-\	-cu-	.	.
8F\J	.	.	.	8c\	-ri-	.	.	.	.	8a\	-lum	.	.
!	!	!	!	!	!	!	!	!	!	!LO:LB:g=original	!	!	!
=10	=10	=10	=10	=10	=10	=10	=10	=10	=10	=10	=10	=10	=10
!	!	!	!	!	!	!	!	!	!	!	!LO:MO:mod=sae-	!	!
8BB-/L	6	.	.	4B-\	-cors	2.r	.	.	.	(8g/L	se-	2.ryy	2.ryy
8C/	4	.	.	.	.	.	.	.	.	8a/J)	.	.	.
8CC/J	3	.	.	8c\	et	.	.	.	.	(16g/LL	-cu-	.	.
.	.	.	.	.	.	.	.	.	.	16f/JJ)	.	.	.
8DD/L	.	.	.	8.A\	mi-	.	.	.	.	8f/	-li	.	.
8EE/	.	.	.	.	.	.	.	.	.	8r	.	.	.
.	.	.	.	16G\	-se-	.	.	.	.	.	.	.	.
8FF/J	.	.	.	8A\	-ra-	.	.	.	.	8r	.	.	.
!	!	!LO:LB:g=original	!	!	!	!	!	!	!	!	!	!	!
=11	=11	=11	=11	=11	=11	=11	=11	=11	=11	=11	=11	=11	=11
!	!	!LO:N:vis=2	!LO:N:vis=2	!	!	!LO:N:vis=2	!	!LO:N:vis=2	!	!LO:N:vis=2	!	!	!
8BB-/L	6 5	4.r	4.r	16B-\	-tor	4.r	.	4.r	.	4.r	.	2.ryy	2.ryy
.	.	.	.	16G\	et	.	.	.	.	.	.	.	.
!	!	!	!	!LO:TX:a:t=P:problem=mixed beam	!	!	!	!	!	!	!	!	!
8C/	.	.	.	8c\L	Ju-	.	.	.	.	.	.	.	.
!LO:SIC:v:s=8CC	!	!	!	!	!	!	!	!	!	!	!	!	!
8DD/J	5 4	.	.	8C/J	.	.	.	.	.	.	.	.	.
.	x 3	.	.	.	.	.	.	.	.	.	.	.	.
*	*	*16\right	*16\right	*	*	*	*	*	*	*	*	*	*
!LO:TX:a:t=P:problem=mixed beam	!	!	!	!	!	!	!	!	!	!	!	!	!
16FF/LL	.	16ff\LL	16aa\LL	16F,<\	-stus	8f\	Ju-	8a\	Ju-	8cc\	Ju-	.	.
16F\	.	16ff\	16aa\	16G\	Ju-	.	.	.	.	.	.	.	.
16F\	.	16cc\	16ff\	8F\	-cun-	8f\	-cun-	8a\	-cun-	8cc\	-cun-	.	.
16F\	.	16cc\	16ff\	.	.	.	.	.	.	.	.	.	.
!	!	!	!	!LO:LB:g=original	!	!	!	!	!	!	!	!	!
16F\	.	16ff\	16aa\	8F\	-dus	8f\	-dus	8a\	-dus	8cc\	-dus	.	.
16F\JJ	.	16ff\JJ	16aa\JJ	.	.	.	.	.	.	.	.	.	.
!LO:LB:g=original	!	!	!	!	!	!	!	!	!	!	!	!	!
=12	=12	=12	=12	=12	=12	=12	=12	=12	=12	=12	=12	=12	=12
16E\LL	6	16gg\LL	16ccc\LL	8E\	ho-	8c\	ho-	8g\	ho-	8ee\	ho-	2.ryy	2.ryy
16E\	.	16gg\	16ccc\	.	.	.	.	.	.	.	.	.	.
16E\	.	16ee\	16gg\	16E\	-mo	16c\	-mo	16g\	-mo	16ee\	-mo	.	.
16E\	.	16ee\	16gg\	16E\	qui	16c\	qui	16g\	qui	16cc\	qui	.	.
16E\	.	16gg\	16ccc\	16E\	mi-	16e\	mi-	16g\	mi-	16cc\	mi-	.	.
16E\JJ	.	16gg\JJ	16ccc\JJ	16E\	-se-	16c\	-se-	16g\	-ſe-	16cc\	-se-	.	.
16D\LL	7_	16dd\LL	16ff\LL	8D/	-re-	8A/	-re-	8f\	-re-	8cc\	-re-	.	.
16D\	.	16dd\	16ff\	.	.	.	.	.	.	.	.	.	.
16D\	.	16a\	16dd\	8D/	-tur	8A/	-tur	8f\	-tur	8cc\	-tur	.	.
16D\	.	16a\	16dd\	.	.	.	.	.	.	.	.	.	.
16D\	.	16dd\	16ff\	8D/	et	8d\	et	8f\	et	8bn\	et	.	.
16D\JJ	6	16dd\JJ	16ff\JJ	.	.	.	.	.	.	.	.	.	.
=13	=13	=13	=13	=13	=13	=13	=13	=13	=13	=13	=13	=13	=13
16C/LL	.	16ee\LL	16gg\LL	8.C/	co-	8.e\	com-	8.g\	com-	8.cc\	com-	2.ryy	2.ryy
16C/	.	16ee\	16gg\	.	.	.	.	.	.	.	.	.	.
16C/	.	16cc\	16ee\	.	.	.	.	.	.	.	.	.	.
16C/	.	16cc\	16ee\	16C/	-mo-	16e\	-mo-	16g\	-mo-	16cc\	-mo-	.	.
!	!	!	!	!	!	!LO:LB:g=original	!	!	!	!	!	!	!
16C/	.	16ee\	16gg\	16C/	-dat	16e\	-dat	16g\	-dat	16cc\	-dat	.	.
!	!	!	!	!	!	!	!	!LO:LB:g=original	!	!LO:LB:g=original	!	!	!
!	!	!	!	!	!	!	!	!	!	!LO:N:vis=8	!	!	!
16C/JJ	.	16ee\JJ	16gg\JJ	16C/	di-	16e\	di-	16g\	di-	16cc\	di-	.	.
16BB-X/LL	6_ 4_	16gg\LL	16ccc\LL	8BB-/	-spo-	8c\	-spo-	8g\	-spo-	8ee\	-spo-	.	.
16BB-/	.	16gg\	16ccc\	.	.	.	.	.	.	.	.	.	.
16BB-/	.	16ee\	16gg\	16BB-/	-net	16c\	-net	16g\	-net,	16ee\	-net,	.	.
16BB-/	X X	16ee\	16gg\	16BB-/	ser-	16c\	ſer-	16g\	ſer-	16ee\	ſer-	.	.
16BB-/	.	16gg\	16ccc\	16BB-/	-mo-	16c\	-mo-	16g\	-mo-	16ee\	-mo-	.	.
16BB-/JJ	.	16gg\JJ	16ccc\JJ	16BB-/	-nes	16c\	-nes	16g\	-nes	16ee\	-nes,	.	.
!	!	!	!LO:LB:g=original	!	!	!	!	!	!	!	!	!	!
=14	=14	=14	=14	=14	=14	=14	=14	=14	=14	=14	=14	=14	=14
16AA/LL	6	16ff\LL	16aa\LL	8A\	su-	8c\	su-	8a\	ſu-	8ff\	ſu-	2.ryy	2.ryy
16AA/	.	16ff\	16aa\	.	.	.	.	.	.	.	.	.	.
16AA/	.	16cc\	16ff\	8F\	-os	8A/	-os	8a,<\	-os	8cc\	-os	.	.
16AA/	.	16cc\	16ff\	.	.	.	.	.	.	.	.	.	.
!	!	!	!	!LO:PB:g=original	!	!	!	!	!	!	!	!	!
16AA/	.	16ff\	16aa\	8A\	in	8c\	in	8f\	in	8a\	in	.	.
16AA/JJ	.	16ff\JJ	16aa\JJ	.	.	.	.	.	.	.	.	.	.
16GG/LL	7	16dd\LL	16bb-\LL	8.G\	ju-	8B-\	ju-	8f\	ju-	8dd\	ju-	.	.
16GG/	.	16dd\	16bb-\	.	.	.	.	.	.	.	.	.	.
16GG/	.	16b-\	16gg\	.	.	8.B-\	-di-	8.f\	-di-	8.g/	-di-	.	.
16GG/	6	16b-\	16gg\	16G\	-di-	.	.	.	.	.	.	.	.
16GG/	.	16ee\	16bb-\	8G\	-ci-	.	.	.	.	.	.	.	.
16GG/JJ	.	16ee\JJ	16bb-\JJ	.	.	16B-\	-ci-	16e\	-ci-	16g/	-ci-	.	.
=15	=15	=15	=15	=15	=15	=15	=15	=15	=15	=15	=15	=15	=15
*	*	*8\right	*8\right	*	*	*	*	*	*	*	*	*	*
!LO:TX:a:t=P:problem=mixed beam	!	!	!	!	!	!	!	!	!	!	!	!	!
8FF/L	.	8ff\L	8aa\L	8F,<\	-o	8c,<\	-o	8f,<\	-o	8a\	-o,	2.ryy	2.ryy
8F\	.	8aa\	8ccc\	8F\	qui-	8A/	qui-	8a\	qui-	8cc\	qui-	.	.
8G\J	6	8gg\J	8bb-\J	8G\	-a	8B-\	-a	8g\	-a	8b-\	-a	.	.
8A\L	6	8ff\L	8aa\L	(8A\L	in	(8c\L	in	8f\L	in	(8a\L	in	.	.
8G\	6	8gg\	8bb-\	8G\J)	.	8B-\J)	.	8g\J	.	8b-\J)	.	.	.
8F\J	.	8aa\J	8ccc\J	8F\	ae-	(16A\LL	ae-	8a\	ae-	(16cc\LL	ae-	.	.
.	.	.	.	.	.	16B-\JJ)	.	.	.	16dd\JJ)	.	.	.
!	!	!LO:LB:g=original	!	!	!	!LO:LB:g=original	!	!	!	!	!	!	!
=16	=16	=16	=16	=16	=16	=16	=16	=16	=16	=16	=16	=16	=16
!LO:TX:a:t=P:problem=mixed beam	!	!	!	!	!	!	!	!	!	!	!	!	!
8C/L	.	8gg\L	8ccc\L	8c\	-ter-	8c\	-ter-	8g\	-ter-	8ee\	-ter-	2.ryy	2.ryy
8c\	.	8ee\	8gg\	8c\	-num	8G/	-num	8e\	-num	8cc\	-num	.	.
!	!	!	!	!	!	!	!	!LO:LB:g=original	!	!	!	!	!
8A\J	6	8ff\J	8aa\J	8A\	no(n)	8c\	no(n)	8a\	no(n)	8ff\	no(n)	.	.
!LO:LB:g=original	!	!	!	!	!	!	!	!	!	!LO:PB:g=original	!	!	!
8B-\	.	8dd\L	8ff\L	8B-\	no(n)	8B-\	no(n)	8f\	no(n)	8dd\	no(n)	.	.
8r	.	8r	8r	8r	.	8r	.	8d\	no(n)	8b-\	no(n)	.	.
8G\	6	8ee\J	8gg\J	8G\	no(n)	8B-\	no(n)	8g\	no(n)	8ee\	no(n)	.	.
=17	=17	=17	=17	=17	=17	=17	=17	=17	=17	=17	=17	=17	=17
8A\L	6	8cc\L	8ff\L	8A\	no(n)	8A/	no(n)	8f\	no(n)	8cc\	no(n)	2.ryy	2.ryy
8r	.	8r	8r	8r	.	8r	.	8c/	no(n)	8a\	no(n)	.	.
!	!	!	!	!	!	!	!LO:MO:mod=com-	!	!	!	!	!	!
8F\J	6	8ff\J	8aa\J	8F\	co-	8A/	co-	8f\	com-	8cc\	com-	.	.
!LO:TX:a:t=P:problem=mixed beam	!	!	!	!	!	!	!	!	!	!	!	!	!
8B-\L	6 5	8gg\L	8bb-\L	8B-\	-mo-	8d\	-mo-	8f\	-mo-	(16b-\LL	-mo-	.	.
.	.	.	.	.	.	.	.	.	.	16a\JJ)	.	.	.
8c\	.	8ff\	8gg\	8c\	-ve-	8.c\	-ve-	8.f\	-ve-	8.g/	-ve-	.	.
!	!	!	!	!LO:LB:g=original	!	!	!	!	!	!	!	!	!
8C/J	5 4	8ee\J	8gg\J	8C/	-bi-	.	.	.	.	.	.	.	.
.	x 3	.	.	.	.	16c\	-bi-	16e\	-bi-	16f/	-bi-	.	.
=18	=18	=18	=18	=18	=18	=18	=18	=18	=18	=18	=18	=18	=18
4.F\	.	8ff\	8aa\	8F\	-tur,	8c\	-tur	8f\	-tur	4f/	-tur	2.ryy	2.ryy
.	.	8r	8r	8A\	in	8r	.	8r	.	.	.	.	.
!	!	!	!	!	!	!	!	!	!	!LO:N:vis=4	!	!	!
.	.	8r	8r	8F\	me-	8r	.	8r	.	8r	.	.	.
!	!	!	!	!LO:TX:b:t=solo	!	!LO:N:vis=2	!	!LO:N:vis=2	!	!LO:N:vis=2	!	!	!
8r	.	8r	8r	8.c\	-mo-	4.r	.	4.r	.	4.r	.	.	.
8E\L	6	8cc\L	8gg\L	.	.	.	.	.	.	.	.	.	.
.	.	.	.	16d\	-ri-	.	.	.	.	.	.	.	.
8C\J	.	8ee\J	8gg\J	16c\	-a	.	.	.	.	.	.	.	.
.	.	.	.	16B-\	ae-	.	.	.	.	.	.	.	.
=19	=19	=19	=19	=19	=19	=19	=19	=19	=19	=19	=19	=19	=19
!	!	!	!	!	!	!LO:TX:a:t=P:problem=w partii vl1 o takt za dużo (dotyczy następnego taktu, ale nie chcę rozbijać pauzy 00r)	!	!LO:TX:a:t=P:problem=w partii vl1 o takt za dużo (dotyczy następnego taktu, ale nie chcę rozbijać pauzy 0r)	!	!LO:TX:a:t=P:problem=w partii vl1 o takt za dużo (dotyczy następnego taktu, ale nie chcę rozbijać pauzy 0r)	!	!	!
4F\	.	8ff\L	8aa\L	8A\	-ter-	2.ryy	.	2.ryy	.	2.ryy	.	2.ryy	2.ryy
.	.	8aa\	8ff\	8F\	-na	.	.	.	.	.	.	.	.
8D\	6	8ff\J	8bb-\J	8B-\	e-	.	.	.	.	.	.	.	.
!LO:TX:a:t=P:problem=mixed beam	!	!	!	!	!	!	!	!	!	!	!	!	!
8E-X\L	6	8ee-X\L	8gg\L	8c\	-rit	.	.	.	.	.	.	.	.
8F\	5 4	8a\	8cc\	4A\	ju-	.	.	.	.	.	.	.	.
8FF/J	x 3	8cc\J	8ff\J	.	.	.	.	.	.	.	.	.	.
=20	=20	=20	=20	=20	=20	=20	=20	=20	=20	=20	=20	=20	=20
!LO:TX:a:t=P:problem=w partii vl1 o takt za dużo	!	!LO:TX:a:t=P:problem=w partii vl1 o takt za dużo	!	!LO:TX:a:t=P:problem=w partii vl1 o takt za dużo	!	!	!	!	!	!	!	!LO:TX:a:t=P:problem=w partii vl1 o takt za dużo	!LO:TX:a:t=P:problem=w partii vl1 o takt za dużo
!	!	!	!	!	!	!	!	!LO:TX:a:t=2	!	!	!	!	!
!	!	!	!	!	!	!LO:N:vis=00	!	!LO:N:vis=0	!	!LO:N:vis=0	!	!	!
2.ryy	.	2.ryy	8dd\L	2.ryy	.	0.r	.	1.ryy	.	1.r	.	2.ryy	2.ryy
.	.	.	8ff\	.	.	.	.	.	.	.	.	.	.
.	.	.	8aa\J	.	.	.	.	.	.	.	.	.	.
!	!	!	!LO:TX:b:t=verte	!	!	!	!	!	!	!	!	!	!
.	.	.	4.ryy	.	.	.	.	.	.	.	.	.	.
!	!	!	!LO:PB:g=original	!	!	!	!	!	!	!	!	!	!
=21	=21	=21	=21	=21	=21	=21	=21	=21	=21	=21	=21	=21	=21
!LO:TX:a:t=P:problem=mixed beam	!	!	!	!	!	!	!	!	!	!	!	!	!
8BB-/L	.	8b-\L	8dd\L	8B-\	-stus,	.	.	.	.	.	.	2.ryy	2.ryy
8B-\	.	8dd\	8ff\	8d\	ab	.	.	.	.	.	.	.	.
!LO:TX:a:t=a	!	!	!	!	!	!	!	!	!	!	!	!	!
8A\J	.	8ff\J	8aa\J	8c\	au-	.	.	.	.	.	.	.	.
8G\L	.	8gg\L	8bb-\L	8.B-\	-di-	.	.	.	.	.	.	.	.
8A\	.	8ff\	16ddd\L	.	.	.	.	.	.	.	.	.	.
!	!	!	!	!	!LO:MO:mod=-ti-	!	!	!	!	!	!	!	!
.	.	.	16ccc\	16A\	-ci-	.	.	.	.	.	.	.	.
!	!	!	!	!LO:LB:g=original	!	!	!	!	!	!	!	!	!
8B-\J	.	8dd\J	16bb-\	16G\	-o-	.	.	.	.	.	.	.	.
.	.	.	16aa\JJ	16F\	-ne	.	.	.	.	.	.	.	.
=22	=22	=22	=22	=22	=22	=22	=22	=22	=22	=22	=22	=22	=22
!	!	!	!	!	!	!	!	!LO:N:vis=2	!	!LO:N:vis=2	!	!	!
8c\L	n	8ee\L	8gg\L	8E\	ma-	.	.	4.r	.	4.r	.	2.ryy	2.ryy
8B-\	4 2	8gg\	8ee\	8C/	-la	.	.	.	.	.	.	.	.
8A\J	6	8ff\J	8aa\J	8F\	no(n)	.	.	.	.	.	.	.	.
!LO:TX:a:t=P:problem=mixed beam	!	!	!	!	!	!	!	!	!	!	!	!	!
8B-\L	6	8dd\L	8gg\L	8BB-/	ti-	.	.	8r	.	8r	.	.	.
8c\	5 4	16ee\L	16gg\L	4C/	-me-	.	.	8r	.	8r	.	.	.
.	.	16ff\	16aa\	.	.	.	.	.	.	.	.	.	.
8C/J	x 3	16dd\	16ff\	.	.	.	.	8g\	Pa-	8cc\	pa-	.	.
.	.	16ee\JJ	16gg\JJ	.	.	.	.	.	.	.	.	.	.
=23	=23	=23	=23	=23	=23	=23	=23	=23	=23	=23	=23	=23	=23
4F\	.	8ff\	8aa\	8FF/	-bit	.	.	16a\LL	-ra-	(16cc\LL	-ra-	2.ryy	2.ryy
.	.	.	.	.	.	.	.	16g\JJ	.	16b-\JJ)	.	.	.
.	.	8r	8r	8r	.	.	.	16a\LL	-tum	(16cc\LL	-tum,	.	.
.	.	.	.	.	.	.	.	16b-\JJ	.	16dd\JJ)	.	.	.
8G\	6	8r	8r	8r	.	.	.	(16a\LL	cor	(16cc\LL	cor	.	.
.	.	.	.	.	.	.	.	16g\JJ)	.	16b-\JJ)	.	.	.
!	!	!	!	!	!	!	!	!LO:LB:g=original	!	!	!	!	!
!	!	!LO:N:vis=2	!LO:N:vis=2	!LO:N:vis=2	!	!	!	!	!	!	!	!	!
8A\L	.	4.r	4.r	4.rC	.	.	.	8f\	e-	8a\	e-	.	.
8G\	.	.	.	.	.	.	.	8g\	-jus	8b-\	-jus	.	.
!	!	!LO:TX:b:t=verte	!	!	!	!	!	!	!	!	!	!	!
8F\J	.	.	.	.	.	.	.	8a\	spe-	8cc\	spe-	.	.
!LO:LB:g=original	!	!LO:PB:g=original	!	!	!	!	!	!	!	!LO:LB:g=original	!	!	!
=24	=24	=24	=24	=24	=24	=24	=24	=24	=24	=24	=24	=24	=24
!	!	!LO:TX:a:t=9	!LO:TX:a:t=9	!	!	!	!	!	!	!	!	!	!
!	!	!LO:N:vis=00	!LO:N:vis=00	!LO:N:vis=0	!	!LO:N:vis=00	!	!	!	!	!	!	!
4BB-/	.	0.r	0.r	1.r	.	0.r	.	8.b-\	-ra-	8.dd\	-ra-	2.ryy	2.ryy
.	6	.	.	.	.	.	.	16a\	-re	16cc\	-re	.	.
8BB-/	5	.	.	.	.	.	.	(16g\LL	in	(16b-\LL	in	.	.
.	.	.	.	.	.	.	.	16f\JJ)	.	16a\JJ)	.	.	.
16C/LL	.	.	.	.	.	.	.	8.e\	do-	8.g/	do-	.	.
16BB-/	.	.	.	.	.	.	.	.	.	.	.	.	.
16C/	.	.	.	.	.	.	.	.	.	.	.	.	.
16D/	.	.	.	.	.	.	.	16e\	-mi-	16g/	-mi-	.	.
16E/	.	.	.	.	.	.	.	8e\	-no,	8g/	-no,	.	.
16D/JJ	.	.	.	.	.	.	.	.	.	.	.	.	.
=25	=25	=25	=25	=25	=25	=25	=25	=25	=25	=25	=25	=25	=25
8C/L	.	.	.	.	.	.	.	8r	.	8r	.	2.ryy	2.ryy
8r	.	.	.	.	.	.	.	8e\	Con-	8g/	Con-	.	.
8C/J	.	.	.	.	.	.	.	8e\	-fir-	8g/	-fir-	.	.
8F\L	.	.	.	.	.	.	.	16f\LL	-ma-	(16a\LL	-ma-	.	.
.	.	.	.	.	.	.	.	16e\JJ	.	16g\JJ)	.	.	.
8r	.	.	.	.	.	.	.	16f\LL	-tum	(16a\LL	-tum	.	.
.	.	.	.	.	.	.	.	16d\JJ	.	16f\JJ)	.	.	.
8D\J	.	.	.	.	.	.	.	16e\	eſt	16g/	eſt	.	.
.	.	.	.	.	.	.	.	16f\	cor	16a/	cor,	.	.
=26	=26	=26	=26	=26	=26	=26	=26	=26	=26	=26	=26	=26	=26
!	!	!	!	!LO:N:vis=2	!	!	!	!	!	!	!	!	!
8G\L	.	.	.	4.r	.	.	.	(16g\LL	e-	(16b-\LL	e-	2.ryy	2.ryy
.	.	.	.	.	.	.	.	16f\JJ)	.	16a\JJ)	.	.	.
8r	.	.	.	.	.	.	.	(16g,<\LL	-jus	(16b-\LL	-jus	.	.
.	.	.	.	.	.	.	.	16e\JJ)	.	16g\JJ)	.	.	.
8E\J	.	.	.	.	.	.	.	(16f\LL	non	(16a\LL	non	.	.
.	.	.	.	.	.	.	.	16g\JJ)	.	16b-\JJ)	.	.	.
!	!	!	!	!	!	!	!	!LO:LB:g=original	!	!	!	!	!
!	!	!	!	!	!	!	!	!	!	!	!LO:MO:mod=com-	!	!
8A\L	.	.	.	8r	.	.	.	16a\LL	com-	(16cc\LL	co-	.	.
.	.	.	.	.	.	.	.	16g\	.	16b-\)	.	.	.
8r	.	.	.	8r	.	.	.	16a\	.	(16cc\	-mo-	.	.
.	.	.	.	.	.	.	.	16f\JJ	.	16a\JJ)	.	.	.
8F\J	.	.	.	8F\	di-	.	.	16g\LL	-mo	(16b-\LL	-ve-	.	.
.	.	.	.	.	.	.	.	16a\JJ	.	16cc\JJ)	.	.	.
!	!	!	!	!	!	!	!	!	!	!LO:LB:g=original	!	!	!
=27	=27	=27	=27	=27	=27	=27	=27	=27	=27	=27	=27	=27	=27
!LO:TX:a:t=P:problem=mixed beam	!	!	!	!	!	!	!	!	!	!	!	!	!
8B-\L	.	.	.	4B-\	-sper-	.	.	16b-\LL	ve-	16dd\LL	.	2.ryy	2.ryy
.	.	.	.	.	.	.	.	16cc\	.	16ee-X\	.	.	.
8r	.	.	.	.	.	.	.	16b-\	.	16dd\	.	.	.
.	.	.	.	.	.	.	.	16a\	.	16cc\	.	.	.
8BB-/J	6 5	.	.	8B-\	-sit	.	.	16g\	.	16b-\	.	.	.
.	.	.	.	.	.	.	.	16f\JJ	.	16a\JJ	.	.	.
!LO:TX:a:t=P:problem=mixed beam	!	!	!	!LO:TX:b:t=solo	!	!	!	!	!	!	!	!	!
8C/L	.	.	.	8c\	de-	.	.	8.e\	.	8.g/	.	.	.
8r	.	.	.	8C/	-dit	.	.	.	.	.	.	.	.
.	.	.	.	.	.	.	.	16f\	-bi-	16a\	-bi-	.	.
8c\J	7	.	.	8c\	pau-	.	.	8g\	-tur,	8b-\	-tur,	.	.
!	!	!	!	!LO:LB:g=original	!	!	!	!	!	!	!	!	!
=28	=28	=28	=28	=28	=28	=28	=28	=28	=28	=28	=28	=28	=28
!	!	!LO:N:vis=00	!LO:N:vis=00	!	!	!LO:N:vis=00	!	!	!	!	!	!	!
8A\L	6	0.r	0.r	8.A\	-pe-	0.r	.	8f\	do-	8a\	do-	2.ryy	2.ryy
8G\	6	.	.	.	.	.	.	8g\	-nec,	8b-\	-nec,	.	.
.	.	.	.	16G\	-ri-	.	.	.	.	.	.	.	.
!	!	!	!	!	!	!	!	!	!LO:MO:mod=de-	!	!	!	!
8F\J	.	.	.	16F\	-bus	.	.	8a\	d-	8cc\	de-	.	.
.	.	.	.	16F\	Ju-	.	.	.	.	.	.	.	.
4B-\	.	.	.	8.B-\	-ſti-	.	.	8b-\	-spi-	8dd\	-spi-	.	.
.	.	.	.	.	.	.	.	16b-\	-ci-	8dd\	-ci-	.	.
.	.	.	.	16B-\	-ti-	.	.	16a\	-at	.	.	.	.
8BB-/	.	.	.	8B-\	-a	.	.	8g\	i-	16cc\	-at,	.	.
.	.	.	.	.	.	.	.	.	.	16b-\	i-	.	.
=29	=29	=29	=29	=29	=29	=29	=29	=29	=29	=29	=29	=29	=29
!LO:TX:a:t=P:problem=mixed beam	!	!	!	!	!	!	!	!	!	!	!	!	!
8F\L	.	.	.	8F\	e-	.	.	8f\	-ni-	8a\	-ni-	2.ryy	2.ryy
8C/	6	.	.	8C/	-jus	.	.	8f\L	-mi-	(8a\L	-mi-	.	.
.	5 4	.	.	.	.	.	.	.	.	.	.	.	.
8CC/J	x 3	.	.	8c\	ma-	.	.	8e\J	.	16g\L	.	.	.
.	.	.	.	.	.	.	.	.	.	16f\JJ)	.	.	.
8FF/L	6 5	.	.	8c\	-net	.	.	8f\	-cos	8f/	-cos	.	.
8BB-/	.	.	.	8B-\L	in	.	.	(8f\L	ſu-	4g/	ſu-	.	.
8C/J	.	.	.	8c\J	.	.	.	8e\J)	.	.	.	.	.
!LO:LB:g=original	!	!	!	!	!	!	!	!LO:LB:g=original	!	!	!	!	!
=30	=30	=30	=30	=30	=30	=30	=30	=30	=30	=30	=30	=30	=30
!LO:TX:a:t=P:problem=mixed beam	!	!	!	!	!LO:MO:mod=sae-	!	!	!LO:N:vis=8	!	!	!	!	!
8FF/L	.	.	.	8.A\	se-	.	.	4f\	-os	4a\	-os,	2.ryy	2.ryy
8D\	6	.	.	.	.	.	.	.	.	.	.	.	.
.	.	.	.	16Bn\	-cu-	.	.	.	.	.	.	.	.
8E\J	6	.	.	8c\	-lum	.	.	8r	.	8r	.	.	.
!LO:TX:a:t=P:problem=mixed beam	!	!	!	!	!LO:MO:mod=sae-	!	!	!	!	!	!	!	!
8F\L	.	.	.	8A\L	se-	.	.	4r	.	4r	.	.	.
8G\	.	.	.	8D\J	.	.	.	.	.	.	.	.	.
.	5 4	.	.	.	.	.	.	.	.	.	.	.	.
8GG/J	x n3r	.	.	8G\	-cu-	.	.	8r	.	8r	.	.	.
!	!	!	!	!LO:LB:g=original	!	!	!	!	!	!	!	!	!
=31	=31	=31	=31	=31	=31	=31	=31	=31	=31	=31	=31	=31	=31
!	!	!	!	!	!	!	!	!LO:TX:a:t=2	!	!LO:TX:a:t=2	!	!	!
!	!	!	!	!	!	!	!	!LO:N:vis=0	!	!LO:N:vis=0	!	!	!
8C/L	.	.	.	8C/	-li	.	.	1.r	.	1.r	.	2.ryy	2.ryy
8E/	.	.	.	8c\	cor-	.	.	.	.	.	.	.	.
8C/J	.	.	.	8G\	-nu	.	.	.	.	.	.	.	.
8F\L	6	.	.	8.A\	e-	.	.	.	.	.	.	.	.
8E\	-n	.	.	.	.	.	.	.	.	.	.	.	.
.	.	.	.	16G\	-jus	.	.	.	.	.	.	.	.
8D\J	6	.	.	16A\	e-	.	.	.	.	.	.	.	.
.	.	.	.	16B-\	-xal-	.	.	.	.	.	.	.	.
=32	=32	=32	=32	=32	=32	=32	=32	=32	=32	=32	=32	=32	=32
8C\L	6	2.r	2.r	8.c\	-ta-	2.r	.	.	.	.	.	2.ryy	2.ryy
8E\	5	.	.	.	.	.	.	.	.	.	.	.	.
.	.	.	.	16B-\	-bi-	.	.	.	.	.	.	.	.
!	!	!	!	!LO:N:vis=16	!	!	!	!	!	!	!	!	!
8F\J	.	.	.	8A\	-tur	.	.	.	.	.	.	.	.
8BB-/L	.	.	.	8B-\	in	.	.	.	.	.	.	.	.
8C/	5 4	.	.	8G\	glo-	.	.	.	.	.	.	.	.
8CC/J	x 3	.	.	8c\	-ri-	.	.	.	.	.	.	.	.
=33	=33	=33	=33	=33	=33	=33	=33	=33	=33	=33	=33	=33	=33
!LO:TX:a:t=P:problem=mixed beam	!	!	!	!	!	!	!	!	!	!	!	!	!
16FF/LL	.	16ff\LL	16aa\LL	16F,<\	-a	8f\	Pec-	8a\	pec-	8cc\	pec-	2.ryy	2.ryy
!	!	!	!	!LO:TX:a:t=Tutti	!	!	!	!	!	!	!	!	!
16F\	.	16ff\	16aa\	16F\	pec-	.	.	.	.	.	.	.	.
16F\	.	16cc\	16ff\	8F\	-ca-	8f\	-ca-	8a\	-ca-	8cc\	-ca-	.	.
16F\	.	16cc\	16ff\	.	.	.	.	.	.	.	.	.	.
16F\	.	16ff\	16aa\	16F\	-tor	16f\	-tor	16a\	-tor,	16cc\	-tor	.	.
!	!	!	!	!	!	!LO:PB:g=original	!	!	!	!	!	!	!
16F\JJ	.	16ff\JJ	16aa\JJ	16F\	vi-	16f\	vi-	16a\	vi-	16cc\	vi-	.	.
!	!	!	!	!LO:LB:g=original	!	!	!	!	!	!	!	!	!
16E\LL	6	16gg\LL	16ccc\LL	8E\	-de-	8c\	-de-	8g\	-de-	8ee\	-de-	.	.
16E\	.	16gg\	16ccc\	.	.	.	.	.	.	.	.	.	.
16E\	.	16ee\	16gg\	8E\	-bit	8c,<\	-bit	8g\	-bit	8ee\	-bit,	.	.
16E\	.	16ee\	16gg\	.	.	.	.	.	.	.	.	.	.
16E\	.	16gg\	16ccc\	8E\	et	8e\	et	8g\	et	8cc\	et	.	.
16E\JJ	.	16gg\JJ	16ccc\JJ	.	.	.	.	.	.	.	.	.	.
=34	=34	=34	=34	=34	=34	=34	=34	=34	=34	=34	=34	=34	=34
16D\LL	7	16dd\LL	16ff\LL	8.D/	i-	8.A/	i-	8.f\	i-	8.cc\	i-	2.ryy	2.ryy
16D\	.	16dd\	16ff\	.	.	.	.	.	.	.	.	.	.
16D\	.	16a\	16dd\	.	.	.	.	.	.	.	.	.	.
16D\	6\	16a\	16dd\	16D/	-ra-	16A/	-ra-	16f\	-ra-	16dd\	-ra-	.	.
16D\	.	16dd\	16ff\	8D/	-sce-	8d\	-ſce-	8f\	-ſce-	8bn\	-ſce-	.	.
!	!	!	!	!	!	!	!	!	!	!LO:TX:a:t=P:problem=zamazana nuta, potem trudny do odszyfrowania rytm	!	!	!
16D\JJ	.	16dd\JJ	16ff\JJ	.	.	.	.	.	.	.	.	.	.
!LO:TX:a:t=P:problem=mixed beam	!	!	!	!	!	!	!	!	!	!	!	!	!
16C/LL	.	16ee\LL	16gg\LL	16C,</	-tur	16e,<\	-tur,	16g\	-tur,	16cc\	-tur,	.	.
!	!	!	!	!	!	!	!	!	!	!	!LO:MO:mod=et	!	!
16c\	.	16ee\	16gg\	16c\	et	16e\	den-	16g\	et	16cc\	.	.	.
16c\	.	16cc\	16ee\	16c\	i-	16e\	-ti-	16g\	i-	16cc\	i-	.	.
16c\	.	16cc\	16ee\	16c\	-ra-	16e\	-bus	16g\	-ra-	16cc\	-ra-	.	.
16c\	.	16ee\	16gg\	16c\	-sce-	16e\	su-	16g\	-ſce-	16cc\	-ſce-	.	.
16c\JJ	.	16ee\JJ	16gg\JJ	16c\	-tur	16e\	-is	16g\	-tur	16cc\	-tur	.	.
!LO:LB:g=original	!	!	!LO:LB:g=original	!	!	!	!	!LO:LB:g=original	!	!	!	!	!
=35	=35	=35	=35	=35	=35	=35	=35	=35	=35	=35	=35	=35	=35
16B-\LL	x 4_ 2_	16gg\LL	16ccc\LL	8B-\	den-	8c\	den-	8g\	den-	8ee\	den-	2.ryy	2.ryy
16B-\	6 _ _	16gg\	16ccc\	.	.	.	.	.	.	.	.	.	.
16B-\	.	16ee\	16gg\	16B-\	-ti-	16c\	-ti-	16g\	-ti-	16ee\	-ti-	.	.
16B-\	.	16ee\	16gg\	16B-\	-bus	16c\	-bus	16g\	-bus	16ee\	-bus	.	.
16B-\	.	16gg\	16ccc\	16B-\	su-	16c\	su-	16g\	su-	16ee\	su-	.	.
16B-\JJ	.	16gg\JJ	16ccc\JJ	16B-,<\	-is	16c\	-is	16g\	-is	16ee\	-is,	.	.
16A\LL	6	16ff\LL	16aa\LL	8.A\	fre-	8c\	fre-	8.a\	fre-	8.ff\	fre-	.	.
16A\	.	16ff\	16aa\	.	.	.	.	.	.	.	.	.	.
!	!	!	!	!	!	!LO:LB:g=original	!	!	!	!	!	!	!
16A\	.	16cc\	16ff\	.	.	8A/	-met	.	.	.	.	.	.
!	!	!	!	!LO:LB:g=original	!	!	!	!	!	!LO:LB:g=original	!	!	!
16A\	.	16cc\	16ff\	16A\	-met	.	.	16a\	-met	16cc\	-met	.	.
16A\	.	16ff\	16aa\	8A\	et	8c\	et	8f\	et	8a\	et	.	.
16A\JJ	.	16ff\JJ	16aa\JJ	.	.	.	.	.	.	.	.	.	.
=36	=36	=36	=36	=36	=36	=36	=36	=36	=36	=36	=36	=36	=36
16G\LL	7	16dd\LL	16bb-\LL	8G\	ta-	8B-\	ta-	8f\	ta-	8dd\	ta-	2.ryy	2.ryy
16G\	.	16dd\	16bb-\	.	.	.	.	.	.	.	.	.	.
16G\	.	16b-\	16gg\	4G\	-be-	4B-\	-be-	(8f\L	-be-	4g/	-be-	.	.
16G\	.	16b-\	16gg\	.	.	.	.	.	.	.	.	.	.
16G\	6	16ee\	16bb-\	.	.	.	.	8e\J)	.	.	.	.	.
16G\JJ	.	16ee\JJ	16bb-\JJ	.	.	.	.	.	.	.	.	.	.
8F\L	.	8cc\L	8aa\L	8F,<\	-scet	8c\	-ſcet	8f\	-scet,	8a\	-scet,	.	.
8F\	6	8aa\	8ccc\	8F\	de-	8A/	de-	8a\	de-	8cc\	de-	.	.
!	!	!	!LO:SIC:v:s=8bb-	!	!	!	!	!	!	!	!	!	!
8G\J	.	8gg\J	8aa\J	8G\	-si-	8B-\	-si-	8g\	-si-	8b-\	-si-	.	.
!	!	!LO:LB:g=original	!	!	!	!	!	!	!	!	!	!	!
=37	=37	=37	=37	=37	=37	=37	=37	=37	=37	=37	=37	=37	=37
8A\L	6	8ff\L	8aa\L	8A\	-de-	8c\	-de-	8f\	-de-	(8.a\L	-de-	2.ryy	2.ryy
8G\	6	16ff\L	16aa\L	16G\	-ri-	16B-\	-ri-	16f\	-ri-	.	.	.	.
.	.	16gg\J	16bb-\J	16G\	-um	16B-\	-um	16g\	-um,	16b-\Jk)	.	.	.
8F\J	.	8aa\J	8ccc\J	16F\	pec-	16A\	pec-	16a\	pec-	16cc\	-ri-	.	.
.	.	.	.	16F\	-ca-	16B-\	-ca-	16a\	-ca-	16dd\	-um,	.	.
!	!	!	!	!	!	!	!	!LO:LB:g=original	!	!	!	!	!
8c\L	.	8gg\L	8ccc\L	8c\L	-to-	4c\	-to-	16g\LL	-to-	16ee\LL	pec-	.	.
.	.	.	.	.	.	.	.	16e\	.	16cc\|	-ca-	.	.
8B-\	4 2	8ee\	8gg\	8B-\J	.	.	.	16f\	.	16dd\|	-to-	.	.
.	.	.	.	.	.	.	.	16g\JJ	.	16ee\JJ|	.	.	.
8A\J	6	8ff\J	8aa\J	8A\	-rum	8c\	-rum	8a\	-rum	8ff\	-rum	.	.
=38	=38	=38	=38	=38	=38	=38	=38	=38	=38	=38	=38	=38	=38
!LO:TX:a:t=P:problem=mixed beam	!	!	!	!	!	!	!	!	!	!	!	!	!
8B-\L	6 3	16dd\LL	8gg\L	8B-\	pe-	8d\	pe-	(16g\LL	pe-	8dd\	pe-	2.ryy	2.ryy
.	.	16ff\	.	.	.	.	.	16f\JJ)	.	.	.	.	.
!	!	!	!	!LO:TX:a:t=P:problem=mixed beam	!	!	!	!	!	!	!LO:MO:mod=-ri-	!	!
8c\	.	16ff\	16gg\L	8c\L	-ri-	4c\	-ri-	(8f\L	-ri-	4g/	-re-	.	.
.	5 4	16ff\	16gg\	.	.	.	.	.	.	.	.	.	.
8C/J	x 3	16ee\	16gg\	8C/J	.	.	.	8e\J)	.	.	.	.	.
.	.	16ee\JJ	16gg\JJ	.	.	.	.	.	.	.	.	.	.
!	!	!	!	!LO:LB:g=original	!	!	!	!	!	!	!	!	!
!LO:TX:a:t=P:problem=mixed beam	!	!	!	!	!	!	!	!	!	!	!	!	!
16FF/LL	.	8ff\	8aa\	8F\	-bit	8c\	-bit	8f\	-bit	8a/	-bit	.	.
16F\	.	.	.	.	.	.	.	.	.	.	.	.	.
16E\	.	8r	8r	8r	.	8r	.	8r	.	8r	.	.	.
16D\	.	.	.	.	.	.	.	.	.	.	.	.	.
16C\	.	8r	8r	8r	.	8r	.	8r	.	8r	.	.	.
16BB-\JJ	.	.	.	.	.	.	.	.	.	.	.	.	.
!	!	!	!	!	!	!LO:LB:g=original	!	!	!	!	!	!	!
=39	=39	=39	=39	=39	=39	=39	=39	=39	=39	=39	=39	=39	=39
!	!	!LO:TX:a:t=3	!LO:TX:a:t=3	!	!	!	!	!	!	!	!	!	!
!	!	!LO:N:vis=0	!LO:N:vis=0	!LO:N:vis=0	!	!	!	!LO:N:vis=0	!	!LO:N:vis=0	!	!	!
4AA/	6	1.r	1.r	1.r	.	16r	.	1.r	.	1.r	.	2.ryy	2.ryy
!	!	!	!	!	!	!LO:TX:a:t=solo	!	!	!	!	!	!	!
.	.	.	.	.	.	16c\	Glo-	.	.	.	.	.	.
.	.	.	.	.	.	16B-\	-ri-	.	.	.	.	.	.
.	6	.	.	.	.	16A/	-a	.	.	.	.	.	.
8BB-/	5	.	.	.	.	(16G/LL	pa-	.	.	.	.	.	.
.	.	.	.	.	.	16F/JJ)	.	.	.	.	.	.	.
!LO:LB:g=original	!	!	!	!	!	!	!	!	!	!	!	!	!
!LO:TX:a:t=P:problem=mixed beam	!	!	!	!	!	!	!	!	!	!	!	!	!
16C/LL	.	.	.	.	.	8.E/L	-tri	.	.	.	.	.	.
16c\	.	.	.	.	.	.	.	.	.	.	.	.	.
16B-\	.	.	.	.	.	.	.	.	.	.	.	.	.
16A\	.	.	.	.	.	16F/Jk	.	.	.	.	.	.	.
16G\	.	.	.	.	.	(16G/LL	et	.	.	.	.	.	.
16F\JJ	5	.	.	.	.	16A/JJ)	.	.	.	.	.	.	.
=40	=40	=40	=40	=40	=40	=40	=40	=40	=40	=40	=40	=40	=40
4E\	6	.	.	.	.	16B-\LL	fi-	.	.	.	.	2.ryy	2.ryy
.	.	.	.	.	.	16G\	.	.	.	.	.	.	.
.	.	.	.	.	.	16c\	.	.	.	.	.	.	.
.	5	.	.	.	.	16B-\JJ	.	.	.	.	.	.	.
8E\	.	.	.	.	.	16A/LL	-li-	.	.	.	.	.	.
.	.	.	.	.	.	16G/JJ	.	.	.	.	.	.	.
16F\LL	.	.	.	.	.	8A/	-o	.	.	.	.	.	.
16G\	.	.	.	.	.	.	.	.	.	.	.	.	.
16F\	.	.	.	.	.	8A/	et	.	.	.	.	.	.
16E\JJ	.	.	.	.	.	.	.	.	.	.	.	.	.
8D\	6	.	.	.	.	8Bn\	spi-	.	.	.	.	.	.
=41	=41	=41	=41	=41	=41	=41	=41	=41	=41	=41	=41	=41	=41
16E\LL	6	2.r	2.r	2.r	.	8.c\	-ri-	2.r	.	2.r	.	2.ryy	2.ryy
16D\	6\	.	.	.	.	.	.	.	.	.	.	.	.
16C\	.	.	.	.	.	.	.	.	.	.	.	.	.
16D\	6	.	.	.	.	16Bn\	-tu-	.	.	.	.	.	.
16E\	6	.	.	.	.	8c\	-i	.	.	.	.	.	.
16C\JJ	.	.	.	.	.	.	.	.	.	.	.	.	.
!LO:TX:a:t=P:problem=mixed beam	!	!	!	!	!	!	!	!	!	!	!	!	!
8F\L	6	.	.	.	.	8d\L	ſan-	.	.	.	.	.	.
8G\	.	.	.	.	.	8G\	.	.	.	.	.	.	.
.	5 4	.	.	.	.	.	.	.	.	.	.	.	.
8GG/J	x n3	.	.	.	.	8Bn\J	.	.	.	.	.	.	.
!	!	!	!	!	!	!LO:LB:g=original	!	!	!	!	!	!	!
=42	=42	=42	=42	=42	=42	=42	=42	=42	=42	=42	=42	=42	=42
!LO:TX:a:t=P:problem=mixed beam	!	!	!	!	!	!	!	!LO:N:vis=8	!	!	!	!	!
16C/LL	.	16cc\LL	16ee\LL	8r	.	8c\	-cto,	16r	.	8r	.	2.ryy	2.ryy
16c\	.	16cc\	16ee\	.	.	.	.	16g\	Si-	.	.	.	.
16c\	.	16ee\	16gg\	16c\	ſi-	16c\	ſi-	16g\	-cut	16ee\	Si-	.	.
!	!	!	!	!	!	!	!	!	!	!LO:LB:g=original	!	!	!
16c\	.	16ee\	16gg\	16c\	-cut	16c\	-cut	16g\	e-	16ee\	-cut,	.	.
16c\	.	16gg\	16ccc\	16c\	e-	16c\	e-	16g\	-rat,	16ee\	e-	.	.
16c\JJ	.	16gg\JJ	16ccc\JJ	16c\	-rat	16c\	-rat	16g\	in	16ee\	-rat,	.	.
!	!	!	!LO:LB:g=original	!	!	!	!	!	!	!	!	!	!
!LO:TX:a:t=P:problem=mixed beam	!	!	!	!	!	!	!	!	!	!	!	!	!
16B-\LL	5_ 4_ 2_	16cc\LL	16ee\LL	16B-\	in	16e\	in	16g\	prin-	16cc\	in	.	.
16BB-/	.	16cc\	16ee\	16B-\	prin-	16e\	prin-	16g\	-ci-	16cc\	prin-	.	.
16BB-/	.	16ee\	16gg\	16c\	-ci-	16e\	-ci-	16g\	-pi-	16cc\	-ci-	.	.
16BB-/	.	16ee\	16gg\	16B-\	-pi-	16e\	-pi-	16g\	-o	16cc\	-pi-	.	.
16BB-/	.	16gg\	16ccc\	16B-\	-o	16e\	-o	16g\	et	16cc\	-o	.	.
16BB-/JJ	X X X	16ee\JJ	16ccc\JJ	16B-\	et	16e\	et	16g\	nu(n)c	16cc\	et	.	.
!	!	!	!	!	!	!	!	!LO:PB:g=original	!	!	!	!	!
=43	=43	=43	=43	=43	=43	=43	=43	=43	=43	=43	=43	=43	=43
!LO:TX:a:t=P:problem=mixed beam	!	!	!	!	!	!	!	!	!	!	!	!	!
16AA/LL	6_ 3_	16a\LL	16cc\LL	8A\	nu(n)c	8f\	nu(n)c	4a\	nu(n)c	(8cc\L	nunc	2.ryy	2.ryy
16A\	.	16a\	16cc\	.	.	.	.	.	.	.	.	.	.
!	!	!	!	!LO:SIC:v:s=8AA	!	!	!	!	!	!	!	!	!
*	*	*	*	*	*ij	*	*	*	*	*	*	*	*
16A\	.	16cc\	16ff\	8GG/	nu(n)c	8c\	et	.	.	8a\J)	.	.	.
*	*	*	*	*	*Xij	*	*	*	*	*	*	*	*
16A\	.	16cc\	16ff\	.	.	.	.	.	.	.	.	.	.
16A\	.	16ff\	16aa\	8A\	nu(n)c	8A/	nu(n)c	8f\	et	8cc\	et	.	.
16A\JJ	X X	16ff\JJ	16aa\JJ	.	.	.	.	.	.	.	.	.	.
!LO:LB:g=original	!	!	!	!	!	!	!	!	!	!	!	!	!
!LO:TX:a:t=P:problem=mixed beam	!	!	!	!LO:TX:a:t=P:problem=mixed beam	!	!	!	!	!	!	!	!	!
16G/LL	7_	16b-\LL	16dd\LL	8G\L	sem-	8d\	et	(4f\	ſem-	8b-\	sem-	.	.
16GG/	.	16b-\	16dd\	.	.	.	.	.	.	.	.	.	.
16GG/	.	16dd\	16gg\	8GG/	.	4G/	ſem-	.	.	(16b-\LL	.	.	.
16GG/	.	16dd\	16gg\	.	.	.	.	.	.	16cc\)	.	.	.
16GG/	6	16gg\	16bb-\	8G\J	.	.	.	8e\)	.	(16a\	.	.	.
16GG/JJ	.	16gg\JJ	16bb-\JJ	.	.	.	.	.	.	16b-\JJ)	.	.	.
!	!	!	!	!LO:LB:g=original	!	!	!	!	!	!	!	!	!
=44	=44	=44	=44	=44	=44	=44	=44	=44	=44	=44	=44	=44	=44
!LO:TX:a:t=P:problem=mixed beam	!	!	!	!	!	!	!	!	!	!	!	!	!
8FF/L	.	16aa\LL	16cc\LL	8F\	-per,	8A\	-per	8f,<\	-per	8cc\	-per,	2.ryy	2.ryy
.	.	16cc\	16ff\	.	.	.	.	.	.	.	.	.	.
8F\	.	16ff\	16aa\	8F\	et	8c\	et	8a\	et	8ff\	et	.	.
.	.	16cc\	16ff\	.	.	.	.	.	.	.	.	.	.
8G\J	6	16gg\	16ee\	8G\	in	8B-\	in	8g\	in	8ee\	in	.	.
.	.	16ee\JJ	16bb-\JJ	.	.	.	.	.	.	.	.	.	.
!	!	!LO:LB:g=original	!	!	!	!	!	!	!	!	!LO:MO:mod=sae-	!	!
8A\L	6	16ff\LL	16ccc\LL	8A\	ſae-	8c\	ſe-	8f\	ſae-	8ff\	ſe-	.	.
.	.	16cc\	16ff\	.	.	.	.	.	.	.	.	.	.
!	!	!	!	!	!	!LO:LB:g=original	!	!	!	!	!	!	!
16A\L	6	16ff\	16aa\	16A\	-cu-	16c\	-cu-	16f\	-cu-	16ff\	-cu-	.	.
!	!	!	!	!	!	!	!	!	!	!LO:LB:g=original	!	!	!
!	!	!	!	!	!	!	!	!	!	!LO:N:vis=16	!	!	!
16G\J	6	16gg\	16bb-\	16G\	-la	16B-\	-la	16g\	-la	32ee\	-la	.	.
!	!	!	!	!	!	!	!	!	!	!LO:N:vis=8	!	!	!
.	.	.	.	.	.	.	.	.	.	32r	.	.	.
!	!	!	!	!	!	!	!	!	!	!	!LO:MO:mod=sae-	!	!
8F\J	.	16aa\	16aa\	16F\	ſae-	8c\	ſe-	8a\	ſae-	(16ff\LL	se-	.	.
.	.	16ff\JJ	16ccc\JJ	16F\	-cu-	.	.	.	.	16cc\JJ)	.	.	.
=45	=45	=45	=45	=45	=45	=45	=45	=45	=45	=45	=45	=45	=45
!	!	!	!	!LO:TX:a:t=P:problem=mixed beam	!	!	!	!	!	!	!	!	!
8BB-/L	6 5	16gg\LL	16bb-\LL	8B-\L	-lo-	8B-\	-cu-	(16g\LL	-cu-	(16dd\LL	-cu-	2.ryy	2.ryy
.	.	16dd\	16ff\	.	.	.	.	16f\JJ)	.	16g\JJ)	.	.	.
8C/	6 x	16cc\	16ee\	8c\	.	(8A\L	-lo-	(8f\L	-lo-	(8a\L	-lo-	.	.
.	5 4	16ee\	16gg\	.	.	.	.	.	.	.	.	.	.
8CC/J	x 3	16g\	16ff\	8C/J	.	8c\J)	.	8e\J)	.	16g\L	.	.	.
.	.	16ee\JJ	16gg\JJ	.	.	.	.	.	.	16f\JJ)	.	.	.
8FF/L	.	16cc\LL	16aa\LL	8F,<\	-rum	8c\	-rum	8f\	-rum	8f/	-rum,	.	.
.	.	16a\	16cc\	.	.	.	.	.	.	.	.	.	.
8BB-/	.	16b-\	16dd\	8B-\	a-	8B-\	A-	8f\	A-	(8dd\	A-	.	.
.	6	16dd\	16ff\	.	.	.	.	.	.	.	.	.	.
8AA/J	.	16ff\	16aa\	8A\	-men	8c\	-men	8f\	-me(n)	8cc\)	.	.	.
.	.	16cc\JJ	16ff\JJ	.	.	.	.	.	.	.	.	.	.
=46	=46	=46	=46	=46	=46	=46	=46	=46	=46	=46	=46	=46	=46
8BB-/L	.	8dd\L	8ff\L	8B-\	a-	8B-\	A-	8f\	A-	8dd\	.	2.ryy	2.ryy
8FF/J	.	8ff\J	8aa\J	8F\	-men	8A/	-men	8f\	-men	8cc\	-men	.	.
8r	.	8r	8r	8r	.	8r	.	8r	.	8r	.	.	.
!LO:N:vis=2	!	!LO:N:vis=2	!LO:N:vis=2	!LO:N:vis=2	!	!LO:N:vis=2	!	!LO:N:vis=2	!	!LO:N:vis=2	!	!	!
4.r	.	4.r	4.r	4.r	.	4.r	.	4.r	.	4.r	.	.	.
==	==	==	==	==	==	==	==	==	==	==	==	==	==
*-	*-	*-	*-	*-	*-	*-	*-	*-	*-	*-	*-	*-	*-
!!!system-decoration: [g1][g2][g3]s9
!!!RDF**kern: > = above
!!!RDF**kern: < = below
!!!RDF**kern: | = vertical stroke
!!!ENC: Zofia Niedbalska
!!!END: 2020-11-11
!!!ENC: Andrzej Borzym
!!!END: 2020-05-07
